X:392
T:
R:polska
S:Ur en gammal »dansbok» i Gotlands fornsal.
O:Gotland
M:3/4
L:1/16
K:F
FGAB cdef gabg|gfef afdB d2c2|c2cA F2FA c2cA|BcdB G2GB d2dB|ABcA FEFA cBcA|BcdB GFGB dcdB|
AFGA Bcde fgaf|eceg bgeg f4::cdef g2ge a2af|b2bg a2af gfed|cdef gfge agaf|babg bagf gfed|
cdcA F2FA c2cA|BcdB G2GB d2dB|cdcA F2FA c2cA|BcdB G2GB d2dB|AFGA Bcde fgaf|ecbg g4 f4:|

